proprietary/assets/icons/gebouwonderdelen/jaloezie.svg

<svg height="64" viewBox="0 0 64 64" width="64" xmlns="http://www.w3.org/2000/svg"><path d="m0 0h64v64h-64z" fill="none"/><path d="m8.7071 16.2929-3.8535 3.8535c-.315.315-.0919.8536.3535.8536h35.7929v-5h-31.5858c-.2652 0-.5195.1053-.7071.2929z"/><path d="m55.2929 16.2929c-.1876-.1876-.4419-.2929-.7071-.2929h-7.5858v5h11.7929c.4454 0 .6685-.5386.3535-.8536z"/><path d="m55.2929 24.2929c-.1876-.1876-.4419-.2929-.7071-.2929h-7.5858v5h11.7929c.4454 0 .6685-.5386.3535-.8536z"/><path d="m8.7071 24.2929-3.8535 3.8535c-.315.315-.0919.8536.3535.8536h35.7929v-5h-31.5858c-.2652 0-.5195.1053-.7071.2929z"/><path d="m55.2929 32.2929c-.1876-.1876-.4419-.2929-.7071-.2929h-7.5858v5h11.7929c.4454 0 .6685-.5386.3535-.8536z"/><path d="m8.7071 32.2929-3.8535 3.8535c-.315.315-.0919.8536.3535.8536h35.7929v-5h-31.5858c-.2652 0-.5195.1053-.7071.2929z"/><path d="m8.7071 40.2929-3.8535 3.8535c-.315.315-.0919.8536.3535.8536h35.7929v-5h-31.5858c-.2652 0-.5195.1053-.7071.2929z"/><path d="m55.2929 40.2929c-.1876-.1876-.4419-.2929-.7071-.2929h-7.5858v5h11.7929c.4454 0 .6685-.5386.3535-.8536z"/><path d="m55.2929 48.2929c-.1876-.1876-.4419-.2929-.7071-.2929h-7.5858v5h11.7929c.4454 0 .6685-.5386.3535-.8536z"/><path d="m8.7071 48.2929-3.8535 3.8535c-.315.315-.0919.8536.3535.8536h35.7929v-5h-31.5858c-.2652 0-.5195.1053-.7071.2929z"/><path d="m59 5h-54c-.5523 0-1 .4477-1 1v5c0 .5523.4477 1 1 1h38v46.4581c-.5953.5621-1 1.5614-1 2.5419 0 1.1046.8954 2 2 2s2-.8954 2-2c0-1.0139-.4047-2.0021-1-2.5529v-46.4471h14c.5523 0 1-.4477 1-1v-5c0-.5523-.4477-1-1-1z"/></svg>

<?xml version="1.0" encoding="utf-8"?>
<!-- Generator: Adobe Illustrator 19.1.0, SVG Export Plug-In . SVG Version: 6.00 Build 0)  -->
<svg version="1.2" baseProfile="tiny" xmlns="http://www.w3.org/2000/svg" xmlns:xlink="http://www.w3.org/1999/xlink" x="0px"
	 y="0px" width="64px" height="64px" viewBox="0 0 64 64" xml:space="preserve">
<g id="Box">
	<rect fill="none" width="64" height="64"/>
</g>
<g id="Icon">
	<g>
		<path d="M8.7071,16.2929l-3.8535,3.8535C4.5386,20.4614,4.7617,21,5.2071,21H41v-5H9.4142C9.149,16,8.8947,16.1053,8.7071,16.2929
			z"/>
		<path d="M55.2929,16.2929C55.1053,16.1053,54.851,16,54.5858,16H47v5h11.7929c0.4454,0,0.6685-0.5386,0.3535-0.8536
			L55.2929,16.2929z"/>
		<path d="M55.2929,24.2929C55.1053,24.1053,54.851,24,54.5858,24H47v5h11.7929c0.4454,0,0.6685-0.5386,0.3535-0.8536
			L55.2929,24.2929z"/>
		<path d="M8.7071,24.2929l-3.8535,3.8535C4.5386,28.4614,4.7617,29,5.2071,29H41v-5H9.4142C9.149,24,8.8947,24.1053,8.7071,24.2929
			z"/>
		<path d="M55.2929,32.2929C55.1053,32.1053,54.851,32,54.5858,32H47v5h11.7929c0.4454,0,0.6685-0.5386,0.3535-0.8536
			L55.2929,32.2929z"/>
		<path d="M8.7071,32.2929l-3.8535,3.8535C4.5386,36.4614,4.7617,37,5.2071,37H41v-5H9.4142C9.149,32,8.8947,32.1053,8.7071,32.2929
			z"/>
		<path d="M8.7071,40.2929l-3.8535,3.8535C4.5386,44.4614,4.7617,45,5.2071,45H41v-5H9.4142C9.149,40,8.8947,40.1053,8.7071,40.2929
			z"/>
		<path d="M55.2929,40.2929C55.1053,40.1053,54.851,40,54.5858,40H47v5h11.7929c0.4454,0,0.6685-0.5386,0.3535-0.8536
			L55.2929,40.2929z"/>
		<path d="M55.2929,48.2929C55.1053,48.1053,54.851,48,54.5858,48H47v5h11.7929c0.4454,0,0.6685-0.5386,0.3535-0.8536
			L55.2929,48.2929z"/>
		<path d="M8.7071,48.2929l-3.8535,3.8535C4.5386,52.4614,4.7617,53,5.2071,53H41v-5H9.4142C9.149,48,8.8947,48.1053,8.7071,48.2929
			z"/>
		<path d="M59,5H5C4.4477,5,4,5.4477,4,6v5c0,0.5523,0.4477,1,1,1h38v46.4581c-0.5953,0.5621-1,1.5614-1,2.5419
			c0,1.1046,0.8954,2,2,2s2-0.8954,2-2c0-1.0139-0.4047-2.0021-1-2.5529V12h14c0.5523,0,1-0.4477,1-1V6C60,5.4477,59.5523,5,59,5z"
			/>
	</g>
</g>
</svg>
